X:1
T:Title
%%score { ( 1 4 ) | ( 2 3 ) }
L:1/8
Q:1/4=100
M:6/8
K:Ab
V:1 treble nm="Grand Piano"
V:4 treble 
V:2 bass 
V:3 bass 
V:1
 .[A,CE]2 [CG] [CA][DB][=D_c] | [Ec]3 [CA]3 | [FA]>[=EG][FA] [FB][FA][DF] | [CE]6 | %4
w: O.~A.~Miller * * * *||||
 EFG [CA][DB][=D_c] | [Ec]3 [CA]3 | [=DA]2 [DF] [DG]2 [DA] |[M:5/8] [EG]3 [DF]2 |[M:1/8] E | %9
w: |||||
[M:3/4] EE E[Ec] [Ec][Ec] | [CA]6[K:bass] | E[K:treble]E E[Ec] [Ec][Ec] | [CA]6[K:bass] | %13
w: ||||
 E[K:treble]F GA Bc | [Ge]2 [Fd] [Ec]2 B |[M:13/16] AEABc3/2B |[M:3/4] A-[EA-] [DA-] [CA]3 |] %17
w: ||||
V:2
 z F[A,,A,] [A,,A,]2 [A,,A,] | [A,,A,]3 [A,,A,]3 | [D,A,]>[D,A,][D,A,] [D,D][D,D][D,A,] | %3
 [A,,A,]C,E, A,,3 | .G,3 z3 | [A,,A,]3 [A,,A,]3 | [B,,F,]2 [B,,B,] [B,,B,]2 [B,,B,] | %7
[M:5/8] [E,B,]3 [E,G,]2 |[M:1/8] D |[M:3/4] CC C[A,,A,] [C,A,][E,A,] | A,E, C, A,,2 C | %11
 CC C[A,,A,] [C,A,][E,A,] | A,E, C, A,,2 A,, | [E,G,D][E,A,D] [E,B,D][A,C] [A,D][A,E] | %14
 [E,B,]2 [E,G,] [A,,A,]2 [D,F,D] |[M:13/16] z A,[E,A,C][E,G,D][E,A,E]3/2[E,G,D] | %16
[M:3/4] z G, F, E,3 |] %17
V:3
 .A,,3 z3 | x6 | x6 | x6 | [E,D]-[E,A,D][E,B,D] [A,,A,]2 [A,,A,] | x6 | x6 |[M:5/8] x5 |[M:1/8] x | %9
[M:3/4] x6 | x6 | x6 | x6 | x6 | x6 |[M:13/16] [E,C]-<[E,C] z/ z/ z/ z/ z/ z/ z/ z |[M:3/4] A,,6 |] %17
V:4
 x6 | x6 | x6 | z A,A, A,3 | x6 | x6 | x6 |[M:5/8] x5 |[M:1/8] x |[M:3/4] x6 | %10
 z[K:bass] A, A, A,2 E | x[K:treble] x5 | z[K:bass] A, A, A,2 [A,CE] | x[K:treble] x5 | x6 | %15
[M:13/16] x13/2 |[M:3/4] .[A,C]2 z2 z2 |] %17

